X:1
T:The Shoemaker's Kiss
M:6/8
L:1/8
K:F
 c| cGA BAG| FED C2 C| FEF AGF| c3 B3| A3 G2 F| FGA BAG| F3- F2 c/2c/2|\
 cGA BAG| FED CCC| FEF AGF| c3 B3| A3 G2 G/2G/2| FGA BAG| F3- F2||\
